icons/jsonnet.svg

<!--
  - The MIT License (MIT)
  -
  - Copyright (c) 2015-2024 Elior "Mallowigi" Boukhobza
  -
  - Permission is hereby granted, free of charge, to any person obtaining a copy
  - of this software and associated documentation files (the "Software"), to deal
  - in the Software without restriction, including without limitation the rights
  - to use, copy, modify, merge, publish, distribute, sublicense, and/or sell
  - copies of the Software, and to permit persons to whom the Software is
  - furnished to do so, subject to the following conditions:
  -
  - The above copyright notice and this permission notice shall be included in all
  - copies or substantial portions of the Software.
  -
  - THE SOFTWARE IS PROVIDED "AS IS", WITHOUT WARRANTY OF ANY KIND, EXPRESS OR
  - IMPLIED, INCLUDING BUT NOT LIMITED TO THE WARRANTIES OF MERCHANTABILITY,
  - FITNESS FOR A PARTICULAR PURPOSE AND NONINFRINGEMENT. IN NO EVENT SHALL THE
  - AUTHORS OR COPYRIGHT HOLDERS BE LIABLE FOR ANY CLAIM, DAMAGES OR OTHER
  - LIABILITY, WHETHER IN AN ACTION OF CONTRACT, TORT OR OTHERWISE, ARISING FROM,
  - OUT OF OR IN CONNECTION WITH THE SOFTWARE OR THE USE OR OTHER DEALINGS IN THE
  - SOFTWARE.
  -
  -->

<svg  version="1.1" xmlns="http://www.w3.org/2000/svg" viewBox="0 0 512 512" width="16px" height="16px">
  <path fill="#0462b8" data-iconColor="Jsonnet"
        d="M305.0437927,303.2127991l-90.7636261-45.3817749l90.7636871-45.3818665l90.7626953,45.3818665L305.0437927,303.2127991z M107.1400833,97.1206284l90.7632523,45.3818436l90.7636261-45.3818436l-90.7636871-45.38134L107.1400833,97.1206284z M205.2273102,245.980545l92.4925079-46.2462616v-90.7631912l-92.4925079,46.2462692V245.980545z M90.7632446,105.3091431L0,150.690918l90.7632446,45.3813477V105.3091431z M205.2273102,460.2607117l91.6276398-45.8138123l-91.6276398-44.9488525V460.2607117z M419.5074768,460.2607117L512,414.0144348V323.25177l-92.4925232,46.2462769V460.2607117z M419.5074768,245.980545L512,199.7342834v-90.7631912l-92.4925232,46.2462692V245.980545z M321.4207764,97.1206284l90.7626648,45.3818436l90.7637024-45.3818436l-90.7637024-45.38134L321.4207764,97.1206284z M404.8594055,269.6816101l-83.4386292,41.719696l83.4386292,41.7197571V269.6816101z M419.5074768,353.1211243l83.4396667-41.7198181l-83.4396667-41.7198181V353.1211243z"/>
</svg>

<svg xmlns="http://www.w3.org/2000/svg" viewBox="0 0 512 512"><path fill="#0462b8" d="M305.044 303.213 214.28 257.83l90.764-45.382 90.763 45.382zM107.14 97.12l90.763 45.381 90.764-45.381-90.764-45.382zm98.087 148.86 92.493-46.247V108.97l-92.493 46.246zM90.763 105.309 0 150.691l90.763 45.381zm114.464 354.952 91.628-45.814-91.628-44.949zm214.28 0L512 414.014v-90.762l-92.493 46.246zm0-214.28L512 199.734v-90.763l-92.493 46.246zM321.421 97.12l90.762 45.381 90.764-45.381-90.764-45.382zm83.438 172.56-83.438 41.72 83.438 41.72zm14.648 83.44 83.44-41.72-83.44-41.72z" data-iconColor="Jsonnet"/></svg>
